resources/svg/trend-up.svg

<svg xmlns="http://www.w3.org/2000/svg" viewBox="0 0 15 15" fill="currentColor"><path fill-rule="evenodd" clip-rule="evenodd" d="M8.00001 3H15V10H14V4.70711L8.00001 10.7071L5.00001 7.70711L0.853561 11.8536L0.146454 11.1464L5.00001 6.29289L8.00001 9.29289L13.2929 4H8.00001V3Z" fill="black"/></svg>

<svg xmlns="http://www.w3.org/2000/svg" viewBox="0 0 15 15" fill="currentColor"><path fill-rule="evenodd" clip-rule="evenodd" d="M8 3h7v7h-1V4.707l-6 6-3-3-4.146 4.147-.708-.708L5 6.293l3 3L13.293 4H8V3z" fill="currentColor"/></svg>
